src/icons/django.svg

<?xml version="1.0" encoding="UTF-8"?>
<svg xmlns="http://www.w3.org/2000/svg" xmlns:xlink="http://www.w3.org/1999/xlink" width="24.381001" height="32" viewBox="0 0 24.381001 32" version="1.1">
<g id="surface1">
<path style=" stroke:none;fill-rule:nonzero;fill:rgb(3.529412%,18.039216%,12.54902%);fill-opacity:1;" d="M 11.074219 0 L 16.214844 0 L 16.214844 23.777344 C 13.578125 24.277344 11.648438 24.476562 9.539062 24.476562 C 3.269531 24.476562 0 21.640625 0 16.203125 C 0 10.96875 3.46875 7.566406 8.839844 7.566406 C 9.671875 7.566406 10.3125 7.632812 11.074219 7.832031 Z M 11.074219 11.96875 C 10.515625 11.78125 9.929688 11.691406 9.339844 11.703125 C 6.738281 11.703125 5.234375 13.300781 5.234375 16.105469 C 5.234375 18.839844 6.667969 20.339844 9.308594 20.339844 C 9.875 20.339844 10.34375 20.308594 11.078125 20.207031 Z M 24.382812 7.933594 L 24.382812 19.839844 C 24.382812 23.941406 24.082031 25.910156 23.179688 27.609375 C 22.347656 29.246094 21.246094 30.28125 18.976562 31.414062 L 14.207031 29.144531 C 16.476562 28.078125 17.578125 27.144531 18.28125 25.710938 C 19.015625 24.238281 19.25 22.542969 19.25 18.074219 L 19.25 7.933594 Z M 19.246094 0.0273438 L 24.382812 0.0273438 L 24.382812 5.296875 L 19.246094 5.296875 Z M 19.246094 0.0273438 "/>
</g>
</svg>

<svg role="img" viewBox="0 0 24.381 32" xmlns="http://www.w3.org/2000/svg"><path d="M11.074 0h5.14v23.777c-2.636.5-4.566.7-6.675.7C3.27 24.477 0 21.64 0 16.203c0-5.234 3.469-8.637 8.84-8.637.832 0 1.473.067 2.234.266Zm0 11.969a5.127 5.127 0 0 0-1.734-.266c-2.602 0-4.106 1.598-4.106 4.402 0 2.735 1.434 4.235 4.075 4.235.566 0 1.035-.031 1.77-.133Zm13.309-4.035V19.84c0 4.101-.301 6.07-1.203 7.77-.832 1.636-1.934 2.671-4.203 3.804l-4.77-2.27c2.27-1.066 3.371-2 4.074-3.433.735-1.473.969-3.168.969-7.637V7.934ZM19.246.027h5.137v5.27h-5.137Zm0 0" style="stroke:none;fill-rule:nonzero;fill:rgb(3.529412%,18.039216%,12.54902%);fill-opacity:1"/></svg>
